X: 8275
T: Corn Riggs
R: barndance
M: 4/4
K: Dmajor
A|:dcde f2ed|cBcd e2A2|dcde f2ed|e2a2 a2aA|
dcde f2ed|cBcd e2A2|defd Beef|e2d2 d3f:|
|:a2a2 f2ed|cBcd e2A2|A2a2 f2ed|e2a2 a2aA|
d2a2 f2ed|cBcd e2A2|defd Beef|e2d2 d4:|

